X:1
T:Frank, LM
T:Frank, LM
T:Julius Henry Waterbury, 1871
T:Public Domain Courtesy of the Cyber Hymnal™
C:Julius Henry Waterbury, 1871
Z:Public Domain
Z:Courtesy of the Cyber Hymnal™
%%score 1 ( 2 3 )
L:1/8
Q:1/4=102
M:6/8
K:Ab
V:1 treble 
V:2 bass 
V:3 bass 
V:1
 [CE] | [CE]2 [DF] [CE]2 [CA] | [Ec]2 [DB] [CA]2 [EA] | [FA]2 [FA] [FA]2 [FA] | %4
 [EG]2 [EB] [EA]2 [Ac] | [Ac]2 [Ac] [Ae]2 [Ac] | [GB]2 [GB] [Gd]2 [GB] | [FA]2 [EB] [Ec]2 [CE] | %8
 [DF]2 [EG] [EA]2 |] %9
V:2
 [A,,A,] | [A,,A,]2 [A,,A,] [A,,A,]2 [A,,A,] | [E,G,]2 [E,G,] [A,,A,]2 [A,C] | %3
 [F,C]2 [F,C] [D,B,]2 [D,B,] | [E,B,]2 [E,D] [A,,C]2 A, | A,2 A, [A,C]2 [A,C] | %6
 [E,B,]2 [E,B,] [E,B,]2 [E,E] | [F,C]2 [G,D] A,2 [C,A,] | [D,B,]2 [E,D] [A,,C]2 |] %9
V:3
 x | x6 | x6 | x6 | x5 A, | A,2 A, x3 | x6 | x3 A,2 x | x5 |] %9

